X:1
T:Dichterliebe, Op.48
T:Die Rose, die Lilie, die Taube
T:3. Die Rose, die Lilie, die Taube
T:Robert Schumann
T:Dichterliebe, Op.48
T:Heinrich Heine
T:OpenScore (CC0)
T:OpenScore (CC0)
C:Robert Schumann
Z:Heinrich Heine
Z:OpenScore (CC0)
%%score 1 { ( 2 4 ) | ( 3 5 6 ) }
L:1/8
Q:1/4=80
M:2/4
K:D
V:1 treble nm="Voice"
V:2 treble nm="Piano"
V:4 treble 
V:3 bass 
V:5 bass 
V:6 bass 
V:1
"^Munter"!mf! A/ | d c/ c/ B c/ c/ | d c/ c/ B c/ c/ | d c/ c/ B A/ A/ | G3/2 F/ (F/E/) E/ A/ | %5
w: Die|Ro- se, die Li- lie, die|Tau- be, die Son- ne, die|liebt' ich einst al- le in|Lie- bes- won- * ne, ich|
 d c/ c/ B z/ c/ | d c/ c/ B c/ c/ | d c/ c/ B A/ A/ | G F/ F/ (F/E/) E/ E/ | E F E3/2 F/ | %10
w: lieb' sie nicht mehr, ich|lie- be al- lei- ne die|Klei- ne, die Fei- ne, die|Rei- ne, die Ei- * ne; sie|sel- ber, al- ler|
 G3/2 A/ (G/F/) F/ A/ | A B/[Q:1/4=70]"^ritard."!<(! B/ =c[Q:1/4=65] e/!f! e/!<)! | %12
w: Lie- be Won- * ne, ist|Ro- se und Li- lie und|
!mf! d A/ A/ (=c/B/) B/[Q:1/4=80] B/ | B B/ B/ (B/e/) e/ e/ | (e/A/) A/ A/ A d/ d/ | %15
w: Tau- be und Son- * ne, ich|lie- be al- lei- * ne die|Klei- * ne, die Fei- ne, die|
 G B/ B/ (A/G/) F/[Q:1/4=45] F/ |"^ritard." B3- (B/A/) |[Q:1/4=80] D z z2 | z4 | z4 | z4 | z4 | %22
w: Rei- ne, die Ei- * ne, die|Ei- * *|ne!|||||
 z2 |] %23
w: |
V:2
 z/ | z/ [Fd]/ z/ [Ac]/ z/ [GB]/ z/ [Gc]/ | z/ [Fd]/ z/ [Ac]/ z/ [GB]/ z/ [Gc]/ | %3
 z/ [Fd]/ z/ [Ac]/ z/ [GB]/ z/ [FA]/ | z/ [EG]/ z/ [DF]/ z/ [CE]/ z/ [CE]/ | %5
 z/ [Fd]/ z/ [Ac]/ z/ [GB]/ z/ [Gc]/ | z/ [Fd]/ z/ [Ac]/ z/ [GB]/ z/ [Gc]/ | %7
 z/ [Fd]/ z/ [Ac]/ z/ [GB]/ z/ [FA]/ | z/ [EG]/ z/ [DF]/ z/ [CE]/ z/ [CE]/ | %9
 z/ [CE]/ z/ [DF]/ z/ [CE]/ z/ [A,^DF]/ | z/ [B,EG]/ z/ [CE]/ z/ [=DF]/ z/ [DFA]/ | %11
 z/ [DFA]/ z/"^ritard."!<(! [DGB]/ z/ [DA=c]/ z/!f! [DBe]/!<)! | %12
 z/ [DAd]/ z/ [DFA]/ z/ [DGB]/ z/ [DGB]/ | z/ [CGB]/ z/ [DGB]/ z/ [EGB]/ z/ [CGB]/ | %14
 z/ [CFA]/ z/ [CEA]/ z/ [DFA]/ z/ [DFA]/ | z/ [DEG]/ z/ [B,EG]/ z/ [A,EG]/ z/ [A,DF]/ | %16
"^ritard." z/ [B,DE-]3/2 [G,CE]2 | x4 | x4 | x4 | x4 | x3 .[A,CE] | .[A,DF] z |] %23
V:3
 z/ |!mf! x4 | x4 | x4 | G,/ z/ ^G,/ z/ A,/ z/ A,/ z/ | x4 | x4 | x4 | %8
 z/ G,/ z/ ^G,/ z/ A,/ z/ A,/ | A, ^G, A, F, | E, A, D, (=C- | C B, A,G,) |!mf! F, D, G, F, | %13
 E, D, C, E, | F, F,, B,, D, | E, D, C, D, | (G,,2 A,,2) | %17
!mp! z/ (.[F,D]/ z/ .[A,C]/ z/ .[G,B,]/ z/ .[G,C]/) | %18
 z/ (.[F,D]/ z/ .[A,C]/ z/ .[G,B,]/ z/ .[G,C]/) | z/ (.[F,D]/ z/ .[G,B,]/ z/ .[F,D]/ z/ .[G,B,]/) | %20
 z/ (.[F,D]/ z/ .[G,B,]/ z/ .[F,D]/ z/ .[G,B,]/-) | ([G,B,]2 [F,A,])!mf! x | .[D,,D,] z |] %23
V:4
 x/ | D/ z/ F/ z/ G/ z/ E/ z/ | D/ z/ F/ z/ G/ z/ E/ z/ | D/ z/ F/ z/ G/ z/ D/ z/ | x4 | %5
 D/ z/ F/ z/ G/ z/ E/ z/ | D/ z/ F/ z/ G/ z/ E/ z/ | D/ z/ F/ z/ G/ z/ D/ z/ | x4 | x4 | x4 | x4 | %12
 x4 | x4 | x4 | x4 | x4 | x4 | x4 | x4 | x4 | x4 | x2 |] %23
V:5
 x/ | x4 | x4 | x4 | x4 | x4 | x4 | x4 | x4 | x4 | x4 | x4 | x4 | x4 | x4 | x4 | x4 | D,,4 | D,,4 | %19
 D,,2 D,,2 | D,,2 D,,2 | [D,,A,,]3 .[A,,,A,,] | x2 |] %23
V:6
 x/ | x4 | x4 | x4 | x4 | x4 | x4 | x4 | x4 | x4 | x4 | x4 | x4 | x4 | x4 | x4 | x4 | %17
 (D,,F,,G,,A,,) | (D,,F,,G,,A,,) | z A,,2 A,,- | A,, A,,2 A,,- | D3 x | x2 |] %23

